!!!!SEGMENT: pl-kc--40102-iii-1-saf--002-023_zielenski-mikolaj--communiones-totius-anni-fantasia.krn
!!!cenid: 16xx:1554
!!!COM: Zieleński, Mikołaj
!!!COM-rismid: pe30013481
!!!CDT:
!!!CNT: Polish
!!!GTL: Communiones totius anni
!!!OTL: Fantasia
!!!OMV: 023
!!!PDT: 1611
!!!AGN:
!!!SMS-siglum: PL-Kc
!!!SMS-shelfmark: 40102 III/1 Saf.
!!!SMS-shelfwork: 002-023 G
!!!SMS-variant:
!!!SMS-altvar:
!!!NIFC-rismid: 990069887
!!!URL-scan: https://cyfrowe.mnk.pl/dlibra/publication/24235/edition/23926/content?ref=desc
!!!ONB-nifc: UWAGA: str. 56 Numer w źródle: 24. Uwaga: W xml metrum 2/1 do źródłowego C| i odpowiednio 3/1 do 3/2
!!!key:
**kern	**kern
*group1	*group1
*part2	*part1
*staff2	*staff1
*I""Organo	*I""Organo
*I''org	*I''org
*Iorgan	*Iorgan
*ICklav	*ICklav
*clefF4	*clefC1
*k[b-]	*k[b-]
*g:	*g:
*M2/1	*M2/1
*met(C|)	*met(C|)
=1	=1
!LO:TX:a:t=Fantaſia. Duae voces cum Organo.	!LO:TX:a:t=24. Fagoto al Cornero, onero Viola groſſa con Violino.
1G	1r
2G\	1g
2A\	.
=2-	=2-
1G	2g/
.	2a\
1GG	2b-\
.	2cc\
=3	=3
2GG/	1.dd
2AA/	.
2BB-/	.
2C/	2ee-X\
=4-	=4-
0D	2.dd\
.	4d/
.	2d/
.	2e/
=5	=5
1DD	2f/
.	2g/
1.DD	2a\
.	2b-\
=6-	=6-
.	2.a\
2D/	.
.	4a\
[<1AA	2a\
!	!LO:N:acc=#
.	2bn\
=7	=7
1AA]	2cc#X\
.	2dd\
1AA	2ee\
.	2ff\
=8-	=8-
1AA	1ee
2D/	[<1dd
2BB-/	.
=9	=9
2BB-/	1dd_<
2C/	.
2D/	1dd]
2E\	.
=10-	=10-
1F#X	2r
.	2dd\
1G	2dd\
.	2cc\
=11	=11
1GG	2b-\
.	2a\
2GG/	1g
2AA/	.
=12-	=12-
2BB-/	2f/
2C/	2e-X/
1D	2d/
.	4a\
.	4g/
=13	=13
1DD	4f/
.	4e/
.	4d/
.	4e/
1D	4f/
.	4g/
.	4a\
.	4f/
=14-	=14-
1.BB-	2b-\
.	2.dd\
.	4cc\
2BB-/	2b-\
*custos:FF	*custos:a
!!LO:LB:g=original
=15	=15
1.FF	2a\
.	2.cc\
.	4b-\
2FF/	2a\
=16-	=16-
1C	2g/
.	4c/
.	4d/
1C	4e/
.	4c/
.	[y2f/
=17	=17
!	!LO:N:xstem:cue
1C	4f/]
.	8e/
.	8d/
.	2e/
1.FF	2f/
.	2.a\
=18-	=18-
.	4b-\
2FF/	4cc\
.	4a\
[y1GG	4b-\
.	4g/
.	[y2dd\
=19	=19
!LO:N:xstem:cue:vis=4	!LO:N:xstem:cue
2GG/]	4dd\]
.	4cc\
2GG/	1b-
0DD	.
.	4a\
.	4g\
=20-	=20-
.	4a\
.	4d/
.	2.g/
1D	.
.	8f#X/
.	8e/
.	2f#/
=21	=21
1GG	2g/
.	2dd\
2A\	2cc\
2G\	2b-\
=22-	=22-
2r	1a
2D/	.
2C/	2e/
2BB-/	2d/
=23	=23
2.AA/	2c/
.	2cc\
4FF/	.
2GG/	2b-\
2D/	2a\
=24-	=24-
2E\	2g/
2F\	2a\
!	!LO:N:acc=#
2G\	2bn\
2C/	[<2cc\
=25	=25
2r	4cc\]
!	!LO:N:acc=#
.	8bn\
.	8a\
2GG/	2b\
2DD/	1cc
4C/	.
4C/	.
*custos:FF	*custos:cc
!!LO:LB:g=original
=26-	=26-
2FF/	4cc\
.	4cc\
4F\	2f/
4F\	.
2BB-/	4ff\
.	4ff\
4B-\	2dd\
4B-\	.
=27	=27
2G\	4dd\
.	4dd\
4G\	2g/
4G\	.
2C/	4cc\
.	4cc\
4F\	2f/
4F\	.
=28-	=28-
2D/	4a\
.	4a\
4D/	2d/
4D/	.
2BB-/	4ff\
.	4ff\
4B-\	2dd\
4B-\	.
=29	=29
4F\	2.cc\
4G\	.
4A\	.
4B-\	8b-\
.	8a\
4c\	4g/
8B-\	4a\
8A\	.
2.G\	4b-\
.	4cc\
=30-	=30-
.	2.dd\
4D/	.
4GG/	.
4AA/	4cc\
4BB-/	4b-\
4C/	8a\
.	8g/
4D/	4f/
4E\	4g/
=31	=31
4F\	4a\
8E\	4b-\
8D\	.
2.C/	4cc\
.	8b-\
.	8a\
.	4g/
8BB-/	4a\
8AA/	.
4GG/	4b-\
4AA/	4cc\
=32-	=32-
4BB-/	2.dd\
4C/	.
4D/	.
4E\	8cc\
.	8b-\
4F\	2a\
4D/	.
4r	2b-\
4GG/	.
=33	=33
1D	1a
1GG	1g
=34-	=34-
1GG	8B-/
.	8A/
.	8B-/
.	8c/
.	4d/
.	4B-/
8F\	4A/
8D\	.
8F\	4d/
8G\	.
4A\	4c/
4F\	4d/
=35	=35
4.G\	4r
.	4dd\
8A\	.
4B-\	4dd\
4G\	4dd\
4e-X\	8b-\
.	8g/
8d\	8b-\
8c\	8cc\
4B-\	4dd\
4c\	8cc\
.	8b-\
=36-	=36-
4d\	4a\
4G\	4b-\
2d\	2a\
4r	4.g/
4G\	.
.	8a\
4G\	8b-\
.	8cc\
4G\	8dd\
.	8ee\
=37	=37
8F\	4.ff\
8D\	.
8F\	.
8G\	8ff\
4A\	4ee\
4F\	8ff\
.	8ee\
2G\	8dd\
.	8cc\
.	2dd\
2E\	.
.	4cc\
=38-	=38-
1D	1dd
8B-\	4d/
8G\	.
8B-\	4g/
8c\	.
4d\	4f/
4B-\	4g/
=39	=39
4r	4.a\
4D/	.
.	8g/
4D/	8f/
.	8d/
4D/	2b-\
8BB-/	.
8GG/	.
8BB-/	8a\
8C/	8g/
4D/	8f/
.	8d/
4BB-/	8g/
.	8f/
=40-	=40-
!	!LO:TX:a:t=P:problem:♭ above
4.C/	8e-/
.	8d/
.	4cc\
8BB-/	.
8AA/	4cc\
8GG/	.
4AA/	4cc\
!!LO:LB:g=original
2.GG/	8b-\
.	8g/
.	8b-\
.	8cc\
.	4dd\
4GG/	8cc\
.	8b-\
=41	=41
2.DD/	2a\
.	2dd\
4D\	.
4A\	2cc#X\
4AA/	.
8D\	2dd\
8E\	.
8F#X\	.
8D\	.
=42-	=42-
!	!LO:N:acc=#
4G\	2bn\
4GG/	.
4DD/	2.ccny\
4C/	.
2.FF/	.
.	4b\
.	2a\
4FF/	.
=43	=43
2C/	2g/
2FF/	2cc\
4BB-/	2dd\
4C/	.
4D/	1dd
4BB-/	.
=44-	=44-
2.F\	.
.	1cc
4F\	.
4G\	.
4GG/	.
4BB-/	[<2b-\
4C/	.
=45	=45
2D/	2b-\]
2.D/	4a\
.	4g/
.	2a\
4D/	.
4C/	2dd\
4BB-/	.
=46-	=46-
1F	1cc
2.BB-/	2b-\
.	[y2dd\
4C/	.
=47	=47
!	!LO:N:xstem:cue
2.D/	4dd\]
.	4cc\
.	2b-\
4E\	.
2F\	2a\
2F\	2.cc\
=48-	=48-
2.C/	.
.	4c/
.	4e/
4D/	4f/
2E\	4g/
.	4c/
2C/	4cc\
.	4b-\
=49	=49
2.F\	4a\
.	4g/
.	2.a\
4E\	.
2.D/	.
.	4g/
.	4f/
4C/	4e/
=50-	=50-
2.BB-/	2d/
.	1b-
4AA/	.
2GG/	.
2D/	4a\
.	4g/
=51	=51
2.D/	4f/
.	4d/
.	2a\
4C/	.
2BB-/	8d/
.	8e/
.	8f/
.	8d/
4AA/	1g
4GG/	.
=52-	=52-
1D	.
!	!LO:TX:a:t=P:problem:# above
.	4f#X/
.	4e/
!	!LO:TX:a:t=P:problem:# above
1DD	4f#X/
.	2g/
!	!LO:TX:a:t=P:problem:# above
.	4f#X/
=53	=53
1GG	2g/
.	4g/
.	4a\
1GG	4b-\
.	4cc\
.	2dd\
=54-	=54-
2.G\	2g/
.	2.gg\
4F\	.
2.E-X\	.
.	4ff\
.	[y2ee-X\
4D\	.
=55	=55
!	!LO:N:xstem:cue
1.C	4ee-\]
.	4ee-y\
.	4cc\
.	4dd\
.	2ee-X\
!LO:N:acc=#	!
2BBn/	1dd
=56-	=56-
0C	.
.	4cc\
!	!LO:N:acc=#
.	4bn\
.	4cc\
.	4g/
.	4cc\
.	4dd\
=57	=57
0DD	4ee-X\
.	4cc\
!	!LO:TX:a:t=P:problem:♭ above
.	4ee-X\
.	4ff\
.	4gg\
.	4cc\
.	2.gg\
=58-	=58-
0DD	.
.	4ff\
!	!LO:TX:a:t=P:problem:♭ above
.	4ee-X\
.	4dd\
!	!LO:TX:a:t=P:problem:♭ above
.	2ee-X\
.	2ee-\
=59-	=59-
0GGl	1dd
!	!LO:N:acc=#
.	1ddnl
==	==
*-	*-
!!!system-decoration: *
!!!RDF**kern: > = above
!!!RDF**kern: < = below
!!!RDF**kern: l = terminal long
!!!AIN: 2 organ
!!!ENC: Berenika Jozajtis
!!!END: 2021-12-30
!!!ENC: Andrzej Kubiczek
!!!END: 2021-12-31
